svgs/light/dreidel.svg

<svg xmlns="http://www.w3.org/2000/svg" viewBox="0 0 448 512"><!-- Font Awesome Pro 6.0.0-alpha2 by @fontawesome - https://fontawesome.com License - https://fontawesome.com/license (Commercial License) --><path d="M443.313 36.688C437.063 30.438 426.938 30.438 420.688 36.688L300.802 156.578L217.492 73.375C210.993 66.875 202.368 63.625 193.868 63.625C185.369 63.625 176.744 66.875 170.244 73.375L19.624 224C7 236.5 0 253.5 0 271.25V413.125C0 450.125 29.874 480 66.873 480H208.743C226.367 480 243.367 473 255.991 460.375L406.736 309.75C419.735 296.625 419.735 275.5 406.736 262.375L323.442 179.188L443.313 59.312C449.562 53.062 449.562 42.938 443.313 36.688ZM233.367 437.75C226.742 444.375 218.117 448 208.743 448H66.873C47.623 448 31.999 432.375 31.999 413.125V271.25C31.999 262 35.624 253.25 42.249 246.625L101.621 187.25L292.74 378.375L233.367 437.75ZM383.987 287.125L315.239 355.75L124.246 164.625L192.868 96C192.993 95.875 193.243 95.625 193.868 95.625L194.868 96L383.987 285.125C384.612 285.625 384.612 286.625 383.987 287.125Z"/></svg>

<svg xmlns="http://www.w3.org/2000/svg" viewBox="0 0 448 512"><!--! Font Awesome Pro 6.3.0 by @fontawesome - https://fontawesome.com License - https://fontawesome.com/license (Commercial License) Copyright 2023 Fonticons, Inc. --><path d="M443.3 36.69c-6.25-6.25-16.35-6.25-22.6 .0002l-119.9 119.9l-83.31-83.2C210.1 66.88 202.4 63.63 193.9 63.63c-8.5 0-17.12 3.25-23.62 9.75L19.62 223.1C6.999 236.5 0 253.5 0 271.3v141.9C0 450.1 29.87 480 66.87 480h141.9c17.62 0 34.63-7.002 47.26-19.63l150.7-150.6c12.1-13.12 12.1-34.25 0-47.38l-83.29-83.19l119.8-119.1C449.5 52.98 449.6 42.94 443.3 36.69zM233.4 437.8C226.7 444.4 218.1 448 208.7 448H66.87c-19.25 0-34.87-15.62-34.87-34.88V271.3c0-9.25 3.625-18 10.25-24.62l59.37-59.38l191.1 191.1L233.4 437.8zM383.1 287.1l-68.75 68.63L124.2 164.6L192.9 96C192.1 95.88 193.2 95.63 193.9 95.63L194.9 96l189.1 189.1C384.6 285.6 384.6 286.6 383.1 287.1z"/></svg>
